X: 27600
T: Monymusk
R: strathspey
M: 4/4
K: Gmajor
e|:d<G B>G d>G c>e|d<G B>G AB/A/ c>e|d<G B>G B/c/d d>g|1 e>c A.d B<G G>e:|2 e.c A.d B<G G>f||
g2 d>g B>g d>f|g>d c>g B.g A.f|g>d e>g d>g B>g|e>c A>d B<G G>f|
g>d d>g B>g d>f|g>d c>g B>g A>f|g>d e>g d>g c>g|B<g A>c B<G G||

